X:1
T:Shores of Loughrea
T:Humours of Loughrea
S:my version of Mike Rafferty's
R:reel
H:Loughrea is the town he is from.
Z:Lesl
M:C|
L:1/8
Q:1/2=80
K:G
DE|G2GA BA~a2|bgag ezdB|G~G2A BAGE|ABAG EzDE|
G~G2A BAaz|bgag egdB|G~G2A BAGE|ABag ezde||
g{a}geg fdB/c/d|gzef gaba|ge~e2 edBd|egfd ~e3z|
gbeg fdBd|gzef gaba|g~g2e az{b}ag|ea{b}ag egdB|G8||
